X:1
T:058 - O Nome de Jesus
T:Letra: William Edwin Entzminger (1859-1930) 
T:Música: Horatio Richmond Palmer (1834-1907)
M:4/4
L:1/8
Q:1/4=100
K:Bb
V:1
F/ B3/F/ | "Bb"d4- d3/F/ c3/F/ | "F7"e4- e3/F/ A3/F/ | c4- c3/F/ B3/F/ | "Bb"d4 z3/B/ d3/B/ | f4- "Bb7"f3/d/ c3/B/ | "Eb"e4- e3/G/ c3/e/ | "Bb/F"d4- "F"d3/F/ A3/c/ | "Bb"B4- B2 || F2 | "Bb"B3/c/ d4 F2 | B3/c/ d4 d2 | "F7"c3/d/ e4 c2 | "Bb"d3/e/ f2 z2 F2 | B3/c/ d4 F2 | B3/c/ d4 d2 | "F7"e3d ce d3/c/ | "Bb"B4 z3/ |]
w: 1.~Do Sal-va-dor_ o no-me traz_ Re-cor-da-ção_ quea mim mea-praz; Dos vis gri-lhões_ me li-ber-tou,_ E deu-me fé_ que me sal-vou._     Do Sal-va-dor o no-me traz    Re-cor-da-ção quea mim mea-praz;    A ti, Se-nhor, a ti, lou-vor              Sem fim eu er-go com fer-vor.  
w: 2.~Em ti, Se-nhor,_ eu go-zo paz_ E tu-do mais_ que sa-tis-faz; De bên-çãos mil_ sou al-vo, sim,_ Que tu, Je-sus,_ dás sem-prea mim._  
w: 3.~Des-pre-zo, pois,_ o queé fa-laz,_ E po-nhoa fé_ no Deus ve-raz; Foi e-le quem,_ por gran-dea-mor,_ Nos deu Je-sus,_ o Re-den-tor._          				                    
W: 
W:
W:1. Do Salvador o nome traz
W: Recordação que a mim me apraz;
W: Dos vis grilhões me libertou,
W: E deu-me fé que me salvou.
W: 
W:    (Estribilho)
W:    Do Salvador o nome traz
W:    Recordação que a mim me apraz;
W:    A ti, Senhor, a ti, louvor          
W:    Sem fim eu ergo com fervor.
W: 
W:
W:
W: 2. Em ti, Senhor, eu gozo paz
W: E tudo mais que satisfaz;
W: De bênçãos mil sou alvo, sim,
W: Que tu, Jesus, dás sempre a mim.
W: 
W: 3. Desprezo, pois, o que é falaz,
W: E ponho a fé no Deus veraz;
W: Foi ele quem, por grande amor,
W: Nos deu Jesus, o Redentor.
W:         
W: 				         
W:           





